components/Company/logos/logo-nash.svg

<svg height="140" viewBox="0 0 400 140" width="400" xmlns="http://www.w3.org/2000/svg"><g fill="none" transform="translate(51 24.868552)"><path d="m24.5274725 28.4835165-1.2362637 7.1208791c-.1978022 1.1868132.6923077 2.2747253 1.9285714 2.2747253h16.1208791c1.8791209 0 3.4615385-1.3351649 3.8076923-3.2142857l1.2362638-7.1208792c.1978022-1.1868131-.6923077-2.2747252-1.9285714-2.2747252h-16.1208792c-1.8791208 0-3.4615384 1.3846154-3.8076923 3.2142857z" fill="#004dfd"/><path d="m16.3186813 68.8846154-1.2362637 7.1208791c-.1978022 1.1868132.6923077 2.2747253 1.9285714 2.2747253h23.6868132c1.8791209 0 3.4615385-1.3351649 3.8076923-3.2142857l1.2362637-7.1208792c.1978022-1.1868131-.6923077-2.2747252-1.9285714-2.2747252h-23.6868132c-1.8791209 0-3.510989 1.3351648-3.8076923 3.2142857z" fill="#478eff"/><path d="m1.48351648 48.6593407-1.23626373 7.1208791c-.1978022 1.1868132.69230769 2.2747253 1.92857143 2.2747253h30.70879122c1.8791209 0 3.4615384-1.3351649 3.8076923-3.2142858l1.2362637-7.1208791c.1978022-1.1868132-.6923077-2.2747253-1.9285714-2.2747253h-30.70879121c-1.87912088.0494506-3.46153846 1.3846154-3.80769231 3.2142858z" fill="#1573ff"/><g fill="#002769"><path d="m159.28022 88.3186813c-1.236264 0-2.126374-1.1373626-1.879121-2.3241758l.543956-2.6208791c-1.730769 1.8296703-4.104396 3.3131868-7.120879 4.5494505-3.016484 1.2362638-6.230769 1.8296704-9.593407 1.8296704-5.489011 0-10.087912-1.6813187-13.846154-4.9945055-3.758241-3.3131869-5.587912-7.7637363-5.587912-13.3516484 0-7.1208791 2.571429-12.8076923 7.664835-16.9615385 5.142858-4.2032967 11.917583-6.2802197 20.373627-6.2802197 4.994505 0 9.494505 1.2362637 13.54945 3.7087912l.494506-2.4725275c.346154-1.532967.494505-2.8681319.494505-3.956044 0-4.9945054-3.115384-7.5164835-9.346153-7.5164835-5.736264 0-11.571429 1.6318682-17.505495 4.8956044-1.137363.6428572-2.571429-.0494505-2.818681-1.3351648l-1.384616-7.5659341c-.296703-1.5824176.395605-3.2142857 1.829671-4.0054945 7.120879-4.0054945 14.587912-5.9835165 22.401099-5.9835165 2.274725 0 4.598901.2967033 6.972527.8406594 2.324176.5934066 4.747253 1.532967 7.21978 2.8681318 2.472528 1.3351649 4.45055 3.3626374 5.983517 6.0824176s2.274725 5.934066 2.274725 9.7417583c0 1.4835165-.296703 3.9560439-.840659 7.3681318l-5.983517 34.1703297c-.346154 1.8296703-1.928571 3.2142857-3.807692 3.2142857zm-13.648352-12.510989c5.142857 0 9.741758-1.5824176 13.796703-4.6978022.395605-.2967033.642858-.7417582.741759-1.1868132l.791208-4.3516483c.148352-.8901099-.296703-1.8296704-1.186813-2.1758242-3.016483-1.0879121-6.428571-1.6318681-10.186813-1.6318681-3.362637 0-6.230769.6923077-8.554945 2.0274725s-3.510989 3.4120879-3.510989 6.2307692c0 1.7307693.741758 3.1153846 2.225275 4.2032967 1.434066 1.0384616 3.412088 1.5824176 5.884615 1.5824176z"/><path d="m205.318681 89.8021978c-5.142857 0-9.93956-1.0879121-14.291208-3.2142857-3.659341-1.7802198-6.379121-4.0549451-8.258242-6.7747253-.593407-.8406593-.395605-2.0274725.395604-2.6703297l7.318681-5.587912c1.532968-1.1373627 3.609891-.989011 5.043957.2967033 3.214285 2.9175824 7.021978 4.3516483 11.373626 4.3516483 2.472527 0 4.54945-.4945055 6.32967-1.4340659 1.78022-.9395605 2.620879-2.3736264 2.620879-4.2527473 0-1.6318681-1.384615-3.3131868-4.203296-4.9945055-2.769231-1.6813187-5.884616-3.2142857-9.247253-4.5989011s-6.428572-3.5604395-9.247253-6.5769231c-2.769231-2.9670329-4.203297-6.4780219-4.203297-10.532967 0-6.0824176 2.324176-10.9285714 7.021978-14.5384615 4.697803-3.6098901 10.681319-5.3901099 18.098902-5.3901099 4.697802 0 8.901098 1.0384615 12.65934 3.0659341 2.967033 1.6318681 5.291209 3.4120879 7.071429 5.3406593.741758.8406593.593406 2.1758242-.296703 2.8681319l-7.467033 5.4395604c-1.483517 1.0879121-3.510989.989011-4.846154-.2472527-2.324176-2.1263737-5.241759-3.2142858-8.802198-3.2142858-2.373626 0-4.302198.4945055-5.785714 1.4835165-1.483517.989011-2.225275 2.3241758-2.225275 3.956044 0 1.2362637.93956 2.4230769 2.818681 3.6098901s4.153846 2.3736264 6.824176 3.5604395c2.67033 1.1868132 5.291209 2.5714286 7.912088 4.1043957 2.620879 1.532967 4.895604 3.6098901 6.774725 6.2307692 1.879121 2.5714286 2.818682 5.5384615 2.818682 8.8021978 0 6.478022-2.373627 11.5714286-7.071429 15.2307692-4.648352 3.8571429-11.027473 5.6868132-19.137363 5.6868132z"/><path d="m112.994505 29.4230769c-3.164835-3.7087912-7.714285-5.5879121-13.6978017-5.5879121-6.3296703 0-11.4725275 2.5714286-15.478022 7.7637363l.6923077-4.0054945c.1978022-1.1868132-.6923077-2.2747253-1.9285714-2.2747253h-10.434066-3.1153846-3.6593406c-1.8791209 0-3.4615385 1.3351649-3.8076923 3.2142857l-1.2362638 7.1208792c-.1978022 1.1868131.6923077 2.2747252 1.9285715 2.2747252h4.5989011l-8.5054945 47.9175824c-.1978022 1.1868132.6923076 2.2747253 1.9285714 2.2747253h10.1868132c1.8791208 0 3.4615384-1.3351648 3.8076923-3.2142857l5.8351648-32.9835165c.7417583-4.3516483 2.4230769-7.6153846 4.9945055-9.8406593s5.3406593-3.3131868 8.3076923-3.3131868c5.3406594 0 8.0109891 2.8681318 8.0109891 8.6043956 0 1.3846154-.197802 3.4120879-.593407 6.032967l-5.7362634 32.4395604c-.1978022 1.1868132.6923077 2.2747253 1.9285714 2.2747253h10.186813c1.879121 0 3.461539-1.3351648 3.807693-3.1648351l5.835164-32.7362638c.642857-3.6098901.989011-6.478022.989011-8.6043956-.098901-5.7362637-1.681318-10.4835165-4.846154-14.1923077z"/><path d="m294.972527 75.7582418h-4.598901l4.153847-23.3406594c.642857-3.6098901.989011-6.478022.989011-8.6043956 0-5.7362637-1.582418-10.4835165-4.747253-14.1923077s-7.714286-5.5879121-13.697802-5.5879121c-6.329671 0-11.521978 2.6208792-15.626374 7.8626374l5.241758-29.22527473c.247253-1.43406593-1.087912-2.62087912-2.472527-2.17582417l-11.571429 3.6098901c-1.384615.44505495-2.423077 1.58241759-2.67033 3.01648352l-13.846153 78.92307688c-.197803 1.1868132.692307 2.2747253 1.928571 2.2747253h11.818681c.939561 0 1.73077-.6923077 1.928572-1.5824176l6.131868-34.565934c.741758-4.3516484 2.423077-7.6153846 4.994505-9.8406594 2.571429-2.2252747 5.34066-3.3131868 8.307693-3.3131868 5.340659 0 8.010989 2.8681319 8.010989 8.6043956 0 1.3846154-.197802 3.4120879-.593407 6.0329671l-5.835165 32.3901098c-.197802 1.1868132.692308 2.2747253 1.928572 2.2747253h4.054945 9.395604 3.659341c1.879121 0 3.461538-1.3351648 3.807692-3.2142857l1.236264-7.1208791c.197802-1.1373627-.741758-2.2252747-1.928572-2.2252747z"/></g></g></svg>

<?xml version="1.0" encoding="UTF-8"?>
<svg width="400px" height="140px" viewBox="0 0 400 140" version="1.1" xmlns="http://www.w3.org/2000/svg" xmlns:xlink="http://www.w3.org/1999/xlink">
    <title>Artboard</title>
    <g id="Artboard" stroke="none" stroke-width="1" fill="none" fill-rule="evenodd">
        <g id="nash-io-logo-vector-2" transform="translate(51.000000, 24.868552)" fill-rule="nonzero">
            <path d="M24.5274725,28.4835165 L23.2912088,35.6043956 C23.0934066,36.7912088 23.9835165,37.8791209 25.2197802,37.8791209 L41.3406593,37.8791209 C43.2197802,37.8791209 44.8021978,36.543956 45.1483516,34.6648352 L46.3846154,27.543956 C46.5824176,26.3571429 45.6923077,25.2692308 44.456044,25.2692308 L28.3351648,25.2692308 C26.456044,25.2692308 24.8736264,26.6538462 24.5274725,28.4835165 Z" id="Path" fill="#004DFD"></path>
            <path d="M16.3186813,68.8846154 L15.0824176,76.0054945 C14.8846154,77.1923077 15.7747253,78.2802198 17.010989,78.2802198 L40.6978022,78.2802198 C42.5769231,78.2802198 44.1593407,76.9450549 44.5054945,75.0659341 L45.7417582,67.9450549 C45.9395604,66.7582418 45.0494505,65.6703297 43.8131868,65.6703297 L20.1263736,65.6703297 C18.2472527,65.6703297 16.6153846,67.0054945 16.3186813,68.8846154 Z" id="Path" fill="#478EFF"></path>
            <path d="M1.48351648,48.6593407 L0.247252747,55.7802198 C0.0494505495,56.967033 0.93956044,58.0549451 2.17582418,58.0549451 L32.8846154,58.0549451 C34.7637363,58.0549451 36.3461538,56.7197802 36.6923077,54.8406593 L37.9285714,47.7197802 C38.1263736,46.532967 37.2362637,45.4450549 36,45.4450549 L5.29120879,45.4450549 C3.41208791,45.4945055 1.82967033,46.8296703 1.48351648,48.6593407 Z" id="Path" fill="#1573FF"></path>
            <path d="M159.28022,88.3186813 C158.043956,88.3186813 157.153846,87.1813187 157.401099,85.9945055 L157.945055,83.3736264 C156.214286,85.2032967 153.840659,86.6868132 150.824176,87.9230769 C147.807692,89.1593407 144.593407,89.7527473 141.230769,89.7527473 C135.741758,89.7527473 131.142857,88.0714286 127.384615,84.7582418 C123.626374,81.4450549 121.796703,76.9945055 121.796703,71.4065934 C121.796703,64.2857143 124.368132,58.5989011 129.461538,54.4450549 C134.604396,50.2417582 141.379121,48.1648352 149.835165,48.1648352 C154.82967,48.1648352 159.32967,49.4010989 163.384615,51.8736264 L163.879121,49.4010989 C164.225275,47.8681319 164.373626,46.532967 164.373626,45.4450549 C164.373626,40.4505495 161.258242,37.9285714 155.027473,37.9285714 C149.291209,37.9285714 143.456044,39.5604396 137.521978,42.8241758 C136.384615,43.467033 134.950549,42.7747253 134.703297,41.489011 L133.318681,33.9230769 C133.021978,32.3406593 133.714286,30.7087912 135.148352,29.9175824 C142.269231,25.9120879 149.736264,23.9340659 157.549451,23.9340659 C159.824176,23.9340659 162.148352,24.2307692 164.521978,24.7747253 C166.846154,25.3681319 169.269231,26.3076923 171.741758,27.6428571 C174.214286,28.978022 176.192308,31.0054945 177.725275,33.7252747 C179.258242,36.4450549 180,39.6593407 180,43.467033 C180,44.9505495 179.703297,47.4230769 179.159341,50.8351648 L173.175824,85.0054945 C172.82967,86.8351648 171.247253,88.2197802 169.368132,88.2197802 L159.28022,88.3186813 L159.28022,88.3186813 Z M145.631868,75.8076923 C150.774725,75.8076923 155.373626,74.2252747 159.428571,71.1098901 C159.824176,70.8131868 160.071429,70.3681319 160.17033,69.9230769 L160.961538,65.5714286 C161.10989,64.6813187 160.664835,63.7417582 159.774725,63.3956044 C156.758242,62.3076923 153.346154,61.7637363 149.587912,61.7637363 C146.225275,61.7637363 143.357143,62.456044 141.032967,63.7912088 C138.708791,65.1263736 137.521978,67.2032967 137.521978,70.021978 C137.521978,71.7527473 138.263736,73.1373626 139.747253,74.2252747 C141.181319,75.2637363 143.159341,75.8076923 145.631868,75.8076923 Z" id="Shape" fill="#002769"></path>
            <path d="M205.318681,89.8021978 C200.175824,89.8021978 195.379121,88.7142857 191.027473,86.5879121 C187.368132,84.8076923 184.648352,82.532967 182.769231,79.8131868 C182.175824,78.9725275 182.373626,77.7857143 183.164835,77.1428571 L190.483516,71.5549451 C192.016484,70.4175824 194.093407,70.5659341 195.527473,71.8516484 C198.741758,74.7692308 202.549451,76.2032967 206.901099,76.2032967 C209.373626,76.2032967 211.450549,75.7087912 213.230769,74.7692308 C215.010989,73.8296703 215.851648,72.3956044 215.851648,70.5164835 C215.851648,68.8846154 214.467033,67.2032967 211.648352,65.521978 C208.879121,63.8406593 205.763736,62.3076923 202.401099,60.9230769 C199.038462,59.5384615 195.972527,57.3626374 193.153846,54.3461538 C190.384615,51.3791209 188.950549,47.8681319 188.950549,43.8131868 C188.950549,37.7307692 191.274725,32.8846154 195.972527,29.2747253 C200.67033,25.6648352 206.653846,23.8846154 214.071429,23.8846154 C218.769231,23.8846154 222.972527,24.9230769 226.730769,26.9505495 C229.697802,28.5824176 232.021978,30.3626374 233.802198,32.2912088 C234.543956,33.1318681 234.395604,34.467033 233.505495,35.1593407 L226.038462,40.5989011 C224.554945,41.6868132 222.527473,41.5879121 221.192308,40.3516484 C218.868132,38.2252747 215.950549,37.1373626 212.39011,37.1373626 C210.016484,37.1373626 208.087912,37.6318681 206.604396,38.6208791 C205.120879,39.6098901 204.379121,40.9450549 204.379121,42.5769231 C204.379121,43.8131868 205.318681,45 207.197802,46.1868132 C209.076923,47.3736264 211.351648,48.5604396 214.021978,49.7472527 C216.692308,50.9340659 219.313187,52.3186813 221.934066,53.8516484 C224.554945,55.3846154 226.82967,57.4615385 228.708791,60.0824176 C230.587912,62.6538462 231.527473,65.6208791 231.527473,68.8846154 C231.527473,75.3626374 229.153846,80.456044 224.456044,84.1153846 C219.807692,87.9725275 213.428571,89.8021978 205.318681,89.8021978 Z" id="Path" fill="#002769"></path>
            <path d="M112.994505,29.4230769 C109.82967,25.7142857 105.28022,23.8351648 99.2967033,23.8351648 C92.967033,23.8351648 87.8241758,26.4065934 83.8186813,31.5989011 L84.510989,27.5934066 C84.7087912,26.4065934 83.8186813,25.3186813 82.5824176,25.3186813 L72.1483516,25.3186813 L69.032967,25.3186813 L65.3736264,25.3186813 C63.4945055,25.3186813 61.9120879,26.6538462 61.5659341,28.532967 L60.3296703,35.6538462 C60.1318681,36.8406593 61.021978,37.9285714 62.2582418,37.9285714 L66.8571429,37.9285714 L58.3516484,85.8461538 C58.1538462,87.032967 59.043956,88.1208791 60.2802198,88.1208791 L70.467033,88.1208791 C72.3461538,88.1208791 73.9285714,86.7857143 74.2747253,84.9065934 L80.1098901,51.9230769 C80.8516484,47.5714286 82.532967,44.3076923 85.1043956,42.0824176 C87.6758242,39.8571429 90.4450549,38.7692308 93.4120879,38.7692308 C98.7527473,38.7692308 101.423077,41.6373626 101.423077,47.3736264 C101.423077,48.7582418 101.225275,50.7857143 100.82967,53.4065934 L95.0934066,85.8461538 C94.8956044,87.032967 95.7857143,88.1208791 97.021978,88.1208791 L107.208791,88.1208791 C109.087912,88.1208791 110.67033,86.7857143 111.016484,84.956044 L116.851648,52.2197802 C117.494505,48.6098901 117.840659,45.7417582 117.840659,43.6153846 C117.741758,37.8791209 116.159341,33.1318681 112.994505,29.4230769 Z" id="Path" fill="#002769"></path>
            <path d="M294.972527,75.7582418 L290.373626,75.7582418 L294.527473,52.4175824 C295.17033,48.8076923 295.516484,45.9395604 295.516484,43.8131868 C295.516484,38.0769231 293.934066,33.3296703 290.769231,29.6208791 C287.604396,25.9120879 283.054945,24.032967 277.071429,24.032967 C270.741758,24.032967 265.549451,26.6538462 261.445055,31.8956044 L266.686813,2.67032967 C266.934066,1.23626374 265.598901,0.0494505495 264.214286,0.494505495 L252.642857,4.1043956 C251.258242,4.54945055 250.21978,5.68681319 249.972527,7.12087912 L236.126374,86.043956 C235.928571,87.2307692 236.818681,88.3186813 238.054945,88.3186813 L249.873626,88.3186813 C250.813187,88.3186813 251.604396,87.6263736 251.802198,86.7362637 L257.934066,52.1703297 C258.675824,47.8186813 260.357143,44.5549451 262.928571,42.3296703 C265.5,40.1043956 268.269231,39.0164835 271.236264,39.0164835 C276.576923,39.0164835 279.247253,41.8846154 279.247253,47.6208791 C279.247253,49.0054945 279.049451,51.032967 278.653846,53.6538462 L272.818681,86.043956 C272.620879,87.2307692 273.510989,88.3186813 274.747253,88.3186813 L278.802198,88.3186813 L288.197802,88.3186813 L291.857143,88.3186813 C293.736264,88.3186813 295.318681,86.9835165 295.664835,85.1043956 L296.901099,77.9835165 C297.098901,76.8461538 296.159341,75.7582418 294.972527,75.7582418 Z" id="Path" fill="#002769"></path>
        </g>
    </g>
</svg>
